dist/svg/static/parking-in-left-long-small.svg

<svg xmlns="http://www.w3.org/2000/svg" width="24" height="24" viewBox="0 0 24 24"><g fill="none" stroke="currentColor" stroke-miterlimit="10"><path d="M11.5 0v2.5h8c1.1 0 2 .9 2 2v15c0 1.1-.9 2-2 2h-8V24"/><path d="M14.5 17.5v-5c0-2.8-2.2-5-5-5h-1c-2.8 0-5-2.2-5-5V0"/><path d="M18 14l-3.5 3.5L11 14"/></g></svg>

<?xml version="1.0" encoding="UTF-8" standalone="no"?>
<svg width="24px" height="24px" viewBox="0 0 24 24" version="1.1" xmlns="http://www.w3.org/2000/svg" xmlns:xlink="http://www.w3.org/1999/xlink">
    <!-- Generator: sketchtool 46.2 (44496) - http://www.bohemiancoding.com/sketch -->
    <title>parking-in-left-long-small</title>
    <desc>Created with sketchtool.</desc>
    <defs></defs>
    <g id="icons-published" stroke="none" stroke-width="1" fill="none" fill-rule="evenodd">
        <g id="briefing" transform="translate(-68.000000, -1178.000000)"></g>
        <g id="parking-in-left-long-small" stroke="#000000">
            <path d="M11.5,0 L11.5,2.5 L19.5,2.5 C20.6,2.5 21.5,3.4 21.5,4.5 L21.5,19.5 C21.5,20.6 20.6,21.5 19.5,21.5 L11.5,21.5 L11.5,24" id="Shape"></path>
            <path d="M14.5,17.5 L14.5,12.5 C14.5,9.7 12.3,7.5 9.5,7.5 L8.5,7.5 C5.7,7.5 3.5,5.3 3.5,2.5 L3.5,0" id="Shape"></path>
            <polyline id="Shape" points="18 14 14.5 17.5 11 14"></polyline>
        </g>
    </g>
</svg>
